src/pos-icons/autorenew.svg

<svg height="24" viewBox="0 0 24 24" width="24" xmlns="http://www.w3.org/2000/svg"><path d="m12 6v3l4-4-4-4v3a8 8 0 0 0 -8 8c0 1.57.46 3.03 1.24 4.26l1.46-1.46c-.45-.83-.7-1.8-.7-2.8a6 6 0 0 1 6-6m6.76 1.74-1.46 1.46c.44.84.7 1.8.7 2.8a6 6 0 0 1 -6 6v-3l-4 4 4 4v-3a8 8 0 0 0 8-8c0-1.57-.46-3.03-1.24-4.26z"/></svg>

<?xml version="1.0" encoding="UTF-8"?><!DOCTYPE svg PUBLIC "-//W3C//DTD SVG 1.1//EN" "http://www.w3.org/Graphics/SVG/1.1/DTD/svg11.dtd"><svg xmlns="http://www.w3.org/2000/svg" xmlns:xlink="http://www.w3.org/1999/xlink" version="1.1" id="mdi-autorenew" width="24" height="24" viewBox="0 0 24 24"><path d="M12,6V9L16,5L12,1V4A8,8 0 0,0 4,12C4,13.57 4.46,15.03 5.24,16.26L6.7,14.8C6.25,13.97 6,13 6,12A6,6 0 0,1 12,6M18.76,7.74L17.3,9.2C17.74,10.04 18,11 18,12A6,6 0 0,1 12,18V15L8,19L12,23V20A8,8 0 0,0 20,12C20,10.43 19.54,8.97 18.76,7.74Z" /></svg>
